X:144341
T:Blue Bells of Scotland (Piano - Pipe Key)
C:
B:
H:
O:Arranged by Kevin Fraser
O:Transcribed by Kevin Fraser
Z:Kevin Fraser
Q:1/4=90
K:Bbmaj
M:none
M:none
M:4/4
L:1/8
R:March
U:V = !accent!
V:M name="Melody" sname="Melody" " " gstem=up stem=down " " 
V:H name="Harmony" sname="Harmony" " " gstem=up stem=down " " 
V:C name="C-Harmony" sname="C-Harmony" " " gstem=up stem=down " " 
V:S clef=perc name="Snare" sname="Snare" middle=G " " gstem=up stem=down dyn=up stafflines=1 " "" " 
V:B clef=none name="Bass" sname="Bass" " " gstem=up stem=down dyn=up " " 
V:T clef=none name="Tenor" sname="Tenor" " " gstem=up stem=down dyn=up " " 
V:BB clef=bass octave=-2 transpose=-1 name="Brass Bass" sname="ABCD-C" " " gstem=up stem=down " " 
V:BC transpose=-1 name="Brass Chord" sname="ABCD-D" " " gstem=up stem=down " " 
V:BD transpose=0 name="Brass Chord 2" sname="ABCD-B" " " gstem=up stem=down " " 
V:P octave=-1 name="Piano" " gstem=up stem=down " 
I:MIDI=program 110
%%MIDI gracedivider 4
%%MIDI gchord
%%MIDI beatstring 
% %alignbars 80
I:linebreak $
%%score {BC BB}
% %score {M}
%%MIDI program 109 #bagpipes
%%MIDI vol 100
%%barsperscore 4
%%landscape
[V:BC][| [db]2 | [db]4 [fa]2[eg]2 | [df]4 [eg]2[fa][gb] | [Bd]2 [Bd]2 [ce]2 [Ac]2 | [B]6 [db]2 |
w:oh | WHere and oh where is - your High-land Lad-die Gone  He's
[V:BC] | [db]4 [fa]2[eg]2 | [df]4 [eg]2[fa][gb] | [Bd]2 [Bd]2 [ce]2 [Ac]2 | [B]6 [f]2 |]
w: | WHere and oh where is - your High-land Lad-die Gone
[V:BC] d3B d2f2 | b4 gab2 | a3f g2e2 | f4 fga2 | 
[V:BC] [db]4 [fa]2[eg]2 | [df]4 [eg]2[fa][gb] | [Bd]2 [Bd]2 [ce]2 [Ac]2 | [B]6 z2 |]
[V:BB][| x2 | Bfdf Bgeg | Bfdf Bgeg| Bfdf Ffcf | Bfdf B2 z2 | 
[V:BB] | Bfdf Bgeg | Bfdf Bgeg| Bfdf Ffcf | Bfdf B2 z2 |]
[V:BB] | dbfb ebgb| dbfb ebgb | Ffdf Ffcf | Bfdf B2 z2
[V:BB] | Bfdf Bgeg | Bfdf Bgeg| Bfdf Ffcf | Bfdf B2 z2 |]

